resources/haticons/SVG/overcast.svg

<!-- Generated by IcoMoon.io -->
<svg version="1.1" xmlns="http://www.w3.org/2000/svg" width="24" height="24" viewBox="0 0 24 24">
<title>overcast</title>
<path fill="#fc7e0f" d="M12 24c-6.611 0.018-11.983-5.329-12-11.939v-0.061c0-6.65 5.351-12 12-12s12 5.35 12 12c0 6.649-5.351 12-12 12zM12 19.249l0.9-0.899-0.9-3.45-0.9 3.45zM10.85 19.199l-0.45 1.701 1.050-1.052zM13.15 19.199l-0.6 0.601 1.050 1.051zM14 22.301l-2-2.001-2 2.001c0.65 0.1 1.3 0.199 2 0.199s1.35-0.050 2-0.199zM12 1.5c-5.799 0-10.5 4.701-10.5 10.5-0.008 4.468 2.825 8.446 7.051 9.899l2.25-8.35c-0.511-0.372-0.809-0.968-0.801-1.6 0-1.101 0.9-2.001 2-2.001s2 0.9 2 2.001c0 0.649-0.301 1.2-0.801 1.6l2.25 8.35c4.227-1.453 7.060-5.432 7.051-9.899 0-5.799-4.701-10.5-10.5-10.5zM18.85 17.2c-0.255 0.319-0.714 0.385-1.049 0.15-0.313-0.207-0.4-0.628-0.194-0.941 0.014-0.021 0.028-0.040 0.044-0.060 0 0 1.35-1.799 1.35-4.35s-1.35-4.35-1.35-4.35c-0.239-0.289-0.198-0.719 0.091-0.957 0.020-0.016 0.039-0.031 0.060-0.044 0.335-0.235 0.794-0.169 1.049 0.15 0.1 0.101 1.65 2.15 1.65 5.2s-1.552 5.102-1.651 5.202zM15.199 15.25c-0.3-0.3-0.249-0.85 0.051-1.15 0 0 0.75-0.799 0.75-2.1s-0.75-2.051-0.75-2.1c-0.3-0.301-0.3-0.801-0.051-1.15 0.232-0.303 0.666-0.357 0.969-0.125 0.029 0.022 0.056 0.047 0.082 0.074 0.051 0.051 1.25 1.301 1.25 3.301s-1.199 3.25-1.25 3.301c-0.301 0.299-0.75 0.25-1.051-0.051zM8.801 15.25c-0.301 0.301-0.75 0.35-1.051 0.051-0.051-0.102-1.25-1.301-1.25-3.301s1.199-3.199 1.25-3.301c0.301-0.299 0.801-0.299 1.051 0.051 0.3 0.3 0.249 0.85-0.051 1.15 0 0.049-0.75 0.799-0.75 2.1s0.75 2.1 0.75 2.1c0.3 0.3 0.351 0.799 0.051 1.15zM6.199 17.351c-0.335 0.234-0.794 0.169-1.050-0.15-0.098-0.101-1.649-2.151-1.649-5.201s1.551-5.1 1.649-5.2c0.256-0.319 0.715-0.386 1.050-0.15 0.313 0.206 0.4 0.628 0.194 0.941-0.013 0.020-0.028 0.040-0.043 0.059 0 0-1.35 1.799-1.35 4.35s1.35 4.35 1.35 4.35c0.25 0.3 0.15 0.75-0.151 1.001z"></path>
</svg>

<svg xmlns="http://www.w3.org/2000/svg" width="24" height="24"><path fill="#fc7e0f" d="M12 24C5.389 24.018.017 18.671 0 12.061V12C0 5.35 5.351 0 12 0s12 5.35 12 12c0 6.649-5.351 12-12 12zm0-4.751l.9-.899-.9-3.45-.9 3.45zm-1.15-.05L10.4 20.9l1.05-1.052zm2.3 0l-.6.601 1.05 1.051zm.85 3.102L12 20.3l-2 2.001c.65.1 1.3.199 2 .199s1.35-.05 2-.199zM12 1.5C6.201 1.5 1.5 6.201 1.5 12a10.447 10.447 0 0 0 7.051 9.899l2.25-8.35a1.947 1.947 0 0 1-.801-1.6c0-1.101.9-2.001 2-2.001s2 .9 2 2.001c0 .649-.301 1.2-.801 1.6l2.25 8.35A10.445 10.445 0 0 0 22.5 12c0-5.799-4.701-10.5-10.5-10.5zm6.85 15.7a.774.774 0 0 1-1.049.15.68.68 0 0 1-.15-1.001s1.35-1.799 1.35-4.35-1.35-4.35-1.35-4.35a.68.68 0 0 1 .151-1.001.774.774 0 0 1 1.049.15c.1.101 1.65 2.15 1.65 5.2S18.949 17.1 18.85 17.2zm-3.651-1.95c-.3-.3-.249-.85.051-1.15 0 0 .75-.799.75-2.1s-.75-2.051-.75-2.1c-.3-.301-.3-.801-.051-1.15a.69.69 0 0 1 1.051-.051C16.301 8.75 17.5 10 17.5 12s-1.199 3.25-1.25 3.301c-.301.299-.75.25-1.051-.051zm-6.398 0c-.301.301-.75.35-1.051.051C7.699 15.199 6.5 14 6.5 12s1.199-3.199 1.25-3.301c.301-.299.801-.299 1.051.051.3.3.249.85-.051 1.15 0 .049-.75.799-.75 2.1s.75 2.1.75 2.1c.3.3.351.799.051 1.15zm-2.602 2.101a.776.776 0 0 1-1.05-.15C5.051 17.1 3.5 15.05 3.5 12s1.551-5.1 1.649-5.2a.774.774 0 0 1 1.05-.15.68.68 0 0 1 .151 1S5 9.449 5 12s1.35 4.35 1.35 4.35c.25.3.15.75-.151 1.001z"/></svg>
